svgs/chrome_remote_desktop.svg

<svg width="192" height="192" viewBox="0 0 192 192" fill="none" xmlns="http://www.w3.org/2000/svg">
<g clip-path="url(#clip0_135_6)">
<path d="M27.339 159H142.661C144.077 159 145.435 158.437 146.436 157.436C147.438 156.434 148 155.076 148 153.659V70.3409C148 69.6395 147.862 68.945 147.594 68.297C147.325 67.649 146.932 67.0603 146.436 66.5643C145.435 65.5627 144.077 65 142.661 65H27.339C25.923 65 24.565 65.5627 23.5638 66.5643C22.5625 67.5659 22 68.9244 22 70.3409V153.659C22 155.076 22.5625 156.434 23.5638 157.436C24.565 158.437 25.923 159 27.339 159V159Z" stroke="black" stroke-width="12" stroke-linecap="round" stroke-linejoin="round"/>
<path d="M44 62.9091V38.3409C44 37.6395 44.1381 36.945 44.4064 36.297C44.6747 35.649 45.068 35.0603 45.5638 34.5643C46.565 33.5627 47.923 33 49.339 33H164.661C166.077 33 167.435 33.5627 168.436 34.5643C169.438 35.5659 170 36.9244 170 38.3409V121.659C170 122.36 169.862 123.055 169.594 123.703C169.325 124.351 168.932 124.94 168.436 125.436C167.94 125.932 167.352 126.325 166.704 126.593C166.056 126.862 165.362 127 164.661 127H148.644" stroke="black" stroke-width="12" stroke-linecap="round" stroke-linejoin="round"/>
<path d="M128.827 155.266C129.271 153.836 129.648 152.377 129.952 150.891C130.256 149.405 130.487 147.893 130.643 146.358C130.799 144.824 130.879 143.267 130.879 141.691C130.879 116.48 110.441 96.0422 85.2301 96.0422C60.019 96.0422 39.5813 116.48 39.5813 141.691C39.5813 143.267 39.6611 144.824 39.817 146.358C39.9728 147.893 40.2047 149.405 40.5087 150.891C40.8128 152.377 41.189 153.836 41.6336 155.266" stroke="black" stroke-width="11.5542" stroke-linecap="round" stroke-linejoin="round"/>
<path d="M85.2303 158.964C86.4227 158.964 87.5869 158.843 88.7113 158.613C89.8357 158.383 90.9203 158.043 91.9535 157.606C92.9868 157.169 93.9686 156.634 94.8875 156.014C95.8064 155.393 96.6624 154.686 97.4438 153.905C98.2253 153.123 98.9322 152.267 99.553 151.348C100.174 150.429 100.708 149.448 101.145 148.414C101.582 147.381 101.922 146.296 102.152 145.172C102.382 144.048 102.503 142.883 102.503 141.691C102.503 132.152 94.7697 124.418 85.2303 124.418C75.6909 124.418 67.9578 132.152 67.9578 141.691C67.9578 142.883 68.0786 144.048 68.3087 145.172C68.5388 146.296 68.8781 147.381 69.3151 148.414C69.7521 149.448 70.2868 150.429 70.9076 151.348C71.5284 152.267 72.2353 153.123 73.0168 153.905C73.7982 154.686 74.6541 155.393 75.5731 156.014C76.492 156.634 77.4738 157.169 78.507 157.606C79.5403 158.043 80.6249 158.383 81.7493 158.613C82.8737 158.843 84.0379 158.964 85.2303 158.964Z" stroke="black" stroke-width="11.5542" stroke-linecap="round" stroke-linejoin="round"/>
<path d="M85.2302 124.418H125.944" stroke="black" stroke-width="11.5542" stroke-linecap="round" stroke-linejoin="round"/>
<path d="M70.2717 150.327L49.9148 115.068" stroke="black" stroke-width="11.5542" stroke-linecap="round" stroke-linejoin="round"/>
</g>
<defs>
<clipPath id="clip0_135_6">
<rect width="192" height="192" fill="white"/>
</clipPath>
</defs>
</svg>

<svg width="192" height="192" fill="none" xmlns="http://www.w3.org/2000/svg"><g clip-path="url(#a)" stroke="#000" stroke-linecap="round" stroke-linejoin="round"><path d="M27.339 159h115.322a5.34 5.34 0 0 0 5.339-5.341V70.341a5.348 5.348 0 0 0-1.564-3.777A5.337 5.337 0 0 0 142.661 65H27.339A5.338 5.338 0 0 0 22 70.34v83.319A5.342 5.342 0 0 0 27.339 159v0Z" stroke-width="12"/><path d="M44 62.91V38.34A5.343 5.343 0 0 1 49.339 33h115.322A5.337 5.337 0 0 1 170 38.34v83.319a5.35 5.35 0 0 1-1.564 3.777 5.329 5.329 0 0 1-3.775 1.564h-16.017" stroke-width="12"/><path d="M128.827 155.266a45.516 45.516 0 0 0 2.052-13.575c0-25.211-20.438-45.649-45.649-45.649-25.211 0-45.649 20.438-45.649 45.649 0 1.576.08 3.133.236 4.667a45.57 45.57 0 0 0 1.817 8.908" stroke-width="11.554"/><path d="M85.23 158.964c1.193 0 2.357-.121 3.481-.351 1.125-.23 2.21-.57 3.243-1.007a17.283 17.283 0 0 0 5.49-3.701 17.385 17.385 0 0 0 2.109-2.557 17.19 17.19 0 0 0 2.95-9.657c0-9.539-7.733-17.273-17.273-17.273s-17.272 7.734-17.272 17.273a17.145 17.145 0 0 0 2.95 9.657 17.385 17.385 0 0 0 4.665 4.666 17.14 17.14 0 0 0 6.176 2.599c1.125.23 2.289.351 3.481.351ZM85.23 124.418h40.714M70.272 150.327l-20.357-35.259" stroke-width="11.554"/></g><defs><clipPath id="a"><path fill="#fff" d="M0 0h192v192H0z"/></clipPath></defs></svg>
